X:07a
T:Temperance Reel
C:Traditional
S:Jim Coon to CoMandoList TOW
M:4/4
L:1/8
Q:1/2=115
K:G
D|:G2GF GABc|dBge dBAc|BEED EFGA|BGAF GFED|!
G2GF GABc|dBge dBAc|BEED EFGA|1 BGAF G2ED:|2 BGAF G3A||!
Beed e3f|geaf gfed|Bdd^c d3e|f2af gfed|!
Beed e3f|geaf gfed|1 BEED EFGA:|2 BGAF G4|!
